X: 1
T: Miss Dickson's Reel
C: Robert Mackintosh
R: jig
S: arr. Terry Traub 2002-02-20
N: A few chord changes by John Chambers
M: 6/8
L: 1/8
K: D
|: A | "D" d2 A AFA | "D"B2 A AFA | "D"d2 A AFA | "G"def "A7"edc | "D" d2 A AFA |
| "D"B2 A AFA | "G"GAB "D"AGF | "Em"EFE "A7"GFE || "D"D2 A, "A7"E2 A, | "D"F2 A, "A7"G2 A, | "D"F2 D "A7"G2 E |
| "A7"ABc "D"dAF | "D"D2 A, "A7"E2 A, | "D"F2 A, "A7"G2 A, | "D"FAd AGF |1 "Em"EFE "A7"G2 :|2 "A7"EFE "D"D2 |]
